assets/Basketball/Flat/basketball_flat.svg

<svg width="32" height="32" viewBox="0 0 32 32" fill="none" xmlns="http://www.w3.org/2000/svg">
<path d="M16 30C23.732 30 30 23.732 30 16C30 8.26801 23.732 2 16 2C8.26801 2 2 8.26801 2 16C2 23.732 8.26801 30 16 30Z" fill="#FF6723"/>
<path d="M2.02911 15.0898C2.0098 15.3907 2 15.6942 2 16C2 16.0596 2.00037 16.1191 2.00112 16.1786C2.2898 16.067 2.63898 15.9227 3.02921 15.7433C4.12606 15.2389 5.56008 14.4506 6.88713 13.3177C7.85631 12.4904 8.77656 11.4722 9.46345 10.2393C10.2623 10.6562 11.0259 11.0886 11.7554 11.5329C9.8213 13.8167 8.52516 16.1533 7.66076 18.3143C6.63983 20.8666 6.22466 23.1645 6.0648 24.8271C6.03105 25.1781 6.00865 25.501 5.99435 25.7922C6.30563 26.1102 6.63194 26.4134 6.97214 26.7007C6.97119 26.2676 6.98909 25.6624 7.0602 24.9228C7.21284 23.3354 7.61016 21.1333 8.58924 18.6856C9.42781 16.5892 10.6957 14.3056 12.6117 12.0697C13.6631 12.748 14.6395 13.4498 15.5451 14.1634C14.9057 14.8757 14.3668 15.6714 13.9302 16.5215C11.7755 20.7176 12.0786 26.342 15.1955 29.9772C15.4617 29.9923 15.73 30 16 30C16.1956 30 16.3903 29.996 16.5839 29.988C13.2026 26.7696 12.6748 21.1553 14.8198 16.9784C15.227 16.1854 15.7289 15.4486 16.3233 14.7935C18.3416 16.4728 19.9817 18.197 21.2998 19.8157C23.0566 21.9731 24.2417 23.9439 24.9864 25.3718C25.1697 25.7234 25.3263 26.0419 25.4581 26.3221C25.7182 26.0837 25.9692 25.8356 26.2106 25.5783C26.1093 25.3705 25.997 25.1471 25.873 24.9094C25.102 23.431 23.8809 21.4018 22.0752 19.1842C20.7355 17.539 19.0743 15.7905 17.0372 14.0868C17.9721 13.2569 19.0886 12.6083 20.3808 12.2124C22.8178 11.4658 25.9361 11.6014 29.7207 13.2039C29.6383 12.7972 29.5383 12.3969 29.4214 12.0039C25.7702 10.5933 22.6407 10.4742 20.0879 11.2563C18.5919 11.7146 17.3113 12.4772 16.2526 13.448C15.3358 12.7212 14.3482 12.0062 13.2855 11.3147C15.6896 8.72766 19.0054 6.24125 23.5779 4.22618C23.2349 4.00494 22.8816 3.79828 22.5188 3.60709C18.0744 5.66119 14.8144 8.16456 12.4264 10.7711C11.6262 10.2789 10.7859 9.80069 9.90374 9.341C9.98122 9.15898 10.0536 8.97287 10.1203 8.78259C10.6792 7.18865 10.8346 5.33004 10.3511 3.1864C10.0362 3.32543 9.72736 3.47572 9.42516 3.63676C9.80848 5.51007 9.64968 7.10254 9.1766 8.45169C9.12463 8.5999 9.06876 8.74548 9.00925 8.88845C7.78598 8.28783 6.48624 7.72335 5.10603 7.20596C4.88769 7.4761 4.67919 7.75453 4.48109 8.04069C5.93318 8.57411 7.29469 9.1606 8.57047 9.7871C7.9561 10.8782 7.13011 11.7955 6.23787 12.5572C5.00242 13.6118 3.65519 14.3548 2.61141 14.8347C2.40366 14.9303 2.20843 15.0152 2.02911 15.0898Z" fill="#212121"/>
</svg>

<svg xmlns="http://www.w3.org/2000/svg" width="32" height="32" fill="none"><path fill="#FF6723" d="M16 30c7.732 0 14-6.268 14-14S23.732 2 16 2 2 8.268 2 16s6.268 14 14 14Z"/><path fill="#212121" d="M2.03 15.09A14.211 14.211 0 0 0 2 16.179c.289-.112.638-.256 1.028-.436 1.097-.504 2.531-1.292 3.858-2.425.97-.828 1.89-1.846 2.576-3.079.8.417 1.563.85 2.292 1.294a24.61 24.61 0 0 0-4.094 6.781 23.774 23.774 0 0 0-1.596 6.513c-.034.351-.056.674-.07.965.31.318.637.621.977.909 0-.433.017-1.039.088-1.778.153-1.588.55-3.79 1.53-6.237a23.62 23.62 0 0 1 4.022-6.616 38.173 38.173 0 0 1 2.933 2.093 11.151 11.151 0 0 0-1.615 2.358c-2.155 4.197-1.851 9.821 1.265 13.456a14.206 14.206 0 0 0 1.389.011c-3.381-3.218-3.91-8.833-1.764-13.01.407-.793.909-1.53 1.503-2.185a36.611 36.611 0 0 1 4.977 5.023 33.187 33.187 0 0 1 3.686 5.556c.184.351.34.67.472.95.26-.238.511-.486.753-.744a27.512 27.512 0 0 0-.338-.669 34.19 34.19 0 0 0-3.798-5.725c-1.34-1.645-3-3.394-5.038-5.097a8.952 8.952 0 0 1 3.344-1.875c2.437-.746 5.555-.61 9.34.992a13.865 13.865 0 0 0-.3-1.2c-3.65-1.41-6.78-1.53-9.333-.748a9.946 9.946 0 0 0-3.835 2.192 39.112 39.112 0 0 0-2.967-2.133c2.404-2.587 5.72-5.074 10.292-7.089a13.967 13.967 0 0 0-1.06-.619c-4.444 2.054-7.704 4.558-10.092 7.164-.8-.492-1.64-.97-2.522-1.43.077-.182.15-.368.216-.558.56-1.594.715-3.453.231-5.597-.315.14-.624.29-.926.45.383 1.874.225 3.467-.248 4.816a8.18 8.18 0 0 1-.168.436 43.472 43.472 0 0 0-3.903-1.682c-.218.27-.427.549-.625.835a42.575 42.575 0 0 1 4.09 1.746c-.615 1.091-1.44 2.008-2.333 2.77-1.236 1.055-2.583 1.798-3.627 2.278-.207.095-.403.18-.582.255Z"/></svg>
